assets/icons/plus.svg

<svg width="25" height="25" viewBox="0 0 25 25" fill="none" xmlns="http://www.w3.org/2000/svg">
<g id="plus">
<path id="iconDefault" fill-rule="evenodd" clip-rule="evenodd" d="M12.5 2.70837C12.8452 2.70837 13.125 2.9882 13.125 3.33337V11.875H21.6667C22.0118 11.875 22.2917 12.1549 22.2917 12.5C22.2917 12.8452 22.0118 13.125 21.6667 13.125H13.125V21.6667C13.125 22.0119 12.8452 22.2917 12.5 22.2917C12.1548 22.2917 11.875 22.0119 11.875 21.6667V13.125H3.33333C2.98815 13.125 2.70833 12.8452 2.70833 12.5C2.70833 12.1549 2.98815 11.875 3.33333 11.875H11.875V3.33337C11.875 2.9882 12.1548 2.70837 12.5 2.70837Z" fill="#18303F"/>
</g>
</svg>

<svg width="25" height="25" viewBox="0 0 25 25" fill="none"><g id="plus"><path id="iconDefault" fill-rule="evenodd" clip-rule="evenodd" d="M12.5 2.708c.345 0 .625.28.625.625v8.542h8.542a.625.625 0 0 1 0 1.25h-8.542v8.542a.625.625 0 1 1-1.25 0v-8.542H3.333a.625.625 0 1 1 0-1.25h8.542V3.333c0-.345.28-.625.625-.625Z" fill="#18303F"/></g></svg>
